X: 42
M:4/4
L:1/8
K:G
ga|b2 gb a2 fa|g2 segs sfds B2|b2 gb a2 fa|gfef d2 ga|
bagb agfa|gfef dega|bgaf gfed|(3efg dB AcBA||

